X: 1206
T: An Draigheann
R: waltz
M: 3/4
K: Amajor
A2|:G2E F2E|E3 D2F|E2E E3-|E3-EAA|
G2E F2E|E3-EA,B,|C2B, A,2A,|A,6:|
zEE G2A|B3 d2B|c2d B2c|A>GE F2E|E6|
zEE G2A|B3 d2B|c>dc e2f|e6|
zEE G2A|B3 d2B|c2d B2c|A>GE F2E|E6|
zAA G2E|F2E E3-|EA,B, C2B,|A,2A, A,6||

